X:1
T: The Countess of Dalkeith
C:
R:Strathspey
Q: 128
K:Bb
M:4/4
L:1/16
|:F2|B3c B2d2 G2B2 GFED|B2F2 Bcd2 c2C2 C3c|B3c B2d2 F2B2 GFED|Eg3 f3e d2B2 B2F2|
B3c B2d2 G2B2 GFED|B2F2 Bcd2 c2C2 C3c|B3c B2d2 F2B2 GFED|Eg3 f3e d2B2 B2f2|
d2f2 edcB b3B eg3|f3A edcB A2c2 c2de|f2B2 d2B2 g2B2 e2g2|F3B c2Bc d2B2 B2de|
f3g1/2a1/2 b3B g3B f3B|e3c edcB A2c2 c3d|B3F GB3 F3B GFED|Eg3 f3e d2B2 B2:|
